images/speaking/speaking-IgnaciodeNuevo_logo.svg

<svg xmlns="http://www.w3.org/2000/svg" width="816" height="160" viewBox="0 0 816 160">
  <g fill="#0047BB" fill-rule="evenodd">
    <path d="M24.0017306-.000298136646L-.000198781973 12.2292671-.000198781973 113.698087 28.1940424 113.698087 28.1940424 44.2839255 33.3653554 41.655354 70.2592896 68.4568447 87.3883323 46.0488944 24.0017306-.000298136646zM94.8734675 46.0488944L94.8734675 115.463056 89.7061301 118.099578 52.8131898 91.2911304 35.6791776 113.698087 99.0727367 159.74728 123.072678 147.527652 123.072678 46.0488944 94.8734675 46.0488944zM800.672817 97.6411429C799.592437 100.982261 796.938697 102.751205 793.302975 102.751205 789.667253 102.751205 787.014507 100.982261 785.933133 97.6411429 785.246342 95.4786584 785.048553 93.5149317 785.048553 89.4861118 785.048553 85.4572919 785.246342 83.494559 785.933133 81.3320745 787.014507 77.9919503 789.667253 76.2230062 793.302975 76.2230062 796.938697 76.2230062 799.592437 77.9919503 800.672817 81.3320745 801.359608 83.494559 801.556402 85.4572919 801.556402 89.4861118 801.556402 93.5149317 801.359608 95.4786584 800.672817 97.6411429L800.672817 97.6411429zM813.937538 77.9919503C811.187389 69.3459876 803.326556 64.6294658 793.302975 64.6294658 783.280388 64.6294658 775.419555 69.3459876 772.669406 77.9919503 771.588032 81.4304596 771.096047 84.7705839 771.096047 89.4861118 771.096047 94.2026335 771.588032 97.5427578 772.669406 100.982261 775.419555 109.629217 783.280388 114.343752 793.302975 114.343752 803.326556 114.343752 811.187389 109.629217 813.937538 100.982261 815.018912 97.5427578 815.510897 94.2026335 815.510897 89.4861118 815.510897 84.7705839 815.018912 81.4304596 813.937538 77.9919503L813.937538 77.9919503zM769.540578 65.7107081L757.355243 65.7107081C756.667457 65.7107081 756.273869 66.0058634 756.078069 66.6935652L747.234259 94.8903354 747.038458 94.8903354 737.802054 66.6935652C737.60526 66.0058634 737.210678 65.7107081 736.523886 65.7107081L724.142751 65.7107081C723.454965 65.7107081 723.160768 66.1042484 723.357562 66.6935652L740.258005 112.280646C740.4548 112.869963 740.847394 113.262509 741.436782 113.262509L752.244558 113.262509C752.835935 113.262509 753.228529 112.869963 753.425323 112.280646L770.326761 66.6935652C770.522561 66.1042484 770.226376 65.7107081 769.540578 65.7107081L769.540578 65.7107081zM707.846605 84.4754286L692.125932 84.4754286C691.73135 84.4754286 691.53555 84.2786584 691.53555 83.8861118 691.53555 82.4133168 691.73135 81.3320745 692.026541 80.3492174 693.107915 77.1074783 696.056846 75.141764 699.985771 75.141764 703.915691 75.141764 706.863628 77.1074783 707.945002 80.3492174 708.239199 81.3320745 708.435993 82.4133168 708.435993 83.8861118 708.435993 84.2786584 708.239199 84.4754286 707.846605 84.4754286L707.846605 84.4754286zM699.888368 64.6294658C689.767384 64.6294658 682.201742 69.5427578 679.449606 78.0893416 678.467623 81.0369193 677.878234 84.4754286 677.878234 89.4861118 677.878234 94.3994037 678.565026 97.837913 679.548997 100.785491 682.299145 109.334062 689.767384 114.343752 700.576154 114.343752 709.320573 114.343752 716.296826 111.199404 720.817128 106.384497 721.211711 105.99195 721.211711 105.402634 720.719725 105.011081L714.233469 98.9191553C713.840875 98.4282236 713.350877 98.5256149 712.857898 98.9191553 710.106756 101.473193 706.667828 103.143752 701.951725 103.143752 697.038829 103.143752 693.402113 100.982261 692.125932 96.8560497 691.830741 96.0699627 691.633947 95.1854907 691.53555 94.2026335 691.53555 93.8090932 691.73135 93.6133168 692.125932 93.6133168L720.915525 93.6133168C721.604305 93.6133168 721.996899 93.2207702 721.996899 92.6304596 721.996899 84.5738137 721.408505 81.1353043 720.424534 77.9919503 717.673391 69.6391553 710.401947 64.6294658 699.888368 64.6294658L699.888368 64.6294658zM670.229104 65.7107081L658.439345 65.7107081C657.847969 65.7107081 657.455374 66.1042484 657.455374 66.6935652L657.455374 94.0058634C657.455374 99.2133168 654.901026 102.65282 650.184924 102.65282 645.36943 102.65282 642.913479 99.1149317 642.913479 94.0058634L642.913479 66.6935652C642.913479 66.1042484 642.519891 65.7107081 641.931496 65.7107081L630.13975 65.7107081C629.550361 65.7107081 629.156773 66.1042484 629.156773 66.6935652L629.156773 96.6582857C629.156773 106.974807 634.659058 114.343752 645.17363 114.343752 651.166907 114.343752 654.901026 112.082882 657.357971 108.842137L657.455374 108.842137 657.455374 112.280646C657.455374 112.869963 657.847969 113.262509 658.439345 113.262509L670.229104 113.262509C670.819486 113.262509 671.213075 112.869963 671.213075 112.280646L671.213075 66.6935652C671.213075 66.1042484 670.819486 65.7107081 670.229104 65.7107081L670.229104 65.7107081zM619.444286 46.4530683L608.341318 46.4530683C607.750936 46.4530683 607.357348 46.8476025 607.357348 47.4359255L607.357348 89.4861118 606.866356 89.4861118 583.282863 47.4359255C582.890268 46.7492174 582.30088 46.4530683 581.6121 46.4530683L569.822342 46.4530683C569.231959 46.4530683 568.838371 46.8476025 568.838371 47.4359255L568.838371 112.280646C568.838371 112.869963 569.231959 113.262509 569.822342 113.262509L580.925309 113.262509C581.515691 113.262509 581.908286 112.869963 581.908286 112.280646L581.908286 70.3288447 582.400271 70.3288447 606.081167 112.280646C606.473762 112.969342 606.963759 113.262509 607.750936 113.262509L619.444286 113.262509C620.033674 113.262509 620.426268 112.869963 620.426268 112.280646L620.426268 47.4359255C620.426268 46.8476025 620.033674 46.4530683 619.444286 46.4530683L619.444286 46.4530683zM547.82811 84.4754286L532.106444 84.4754286C531.712856 84.4754286 531.516061 84.2786584 531.516061 83.8861118 531.516061 82.4133168 531.712856 81.3320745 532.008047 80.3492174 533.088427 77.1074783 536.036363 75.141764 539.967277 75.141764 543.897197 75.141764 546.846127 77.1074783 547.925513 80.3492174 548.220705 81.3320745 548.417499 82.4133168 548.417499 83.8861118 548.417499 84.2786584 548.220705 84.4754286 547.82811 84.4754286L547.82811 84.4754286zM539.867886 64.6294658C529.74889 64.6294658 522.18126 69.5427578 519.431111 78.0893416 518.447141 81.0369193 517.857752 84.4754286 517.857752 89.4861118 517.857752 94.3994037 518.546532 97.837913 519.528514 100.785491 522.280651 109.334062 529.74889 114.343752 540.556666 114.343752 549.302078 114.343752 556.278332 111.199404 560.798634 106.384497 561.191228 105.99195 561.191228 105.402634 560.699243 105.011081L554.214975 98.9191553C553.822381 98.4282236 553.330395 98.5256149 552.840398 98.9191553 550.088261 101.473193 546.649333 103.143752 541.931243 103.143752 537.018346 103.143752 533.383618 100.982261 532.106444 96.8560497 531.810259 96.0699627 531.614458 95.1854907 531.516061 94.2026335 531.516061 93.8090932 531.712856 93.6133168 532.106444 93.6133168L560.896037 93.6133168C561.583823 93.6133168 561.977411 93.2207702 561.977411 92.6304596 561.977411 84.5738137 561.388022 81.1353043 560.405046 77.9919503 557.653903 69.6391553 550.382458 64.6294658 539.867886 64.6294658L539.867886 64.6294658zM496.551306 97.6411429C495.469932 100.982261 492.915584 102.751205 489.279862 102.751205 485.546736 102.751205 482.991394 100.982261 481.91002 97.6411429 481.320631 95.7748075 481.02544 93.7107081 481.02544 89.4861118 481.02544 85.2625093 481.320631 83.1974161 481.91002 81.3320745 482.991394 77.8935652 485.546736 76.2230062 489.279862 76.2230062 492.915584 76.2230062 495.469932 77.8935652 496.551306 81.3320745 497.140695 83.1974161 497.435886 85.2625093 497.435886 89.4861118 497.435886 93.7107081 497.140695 95.7748075 496.551306 97.6411429L496.551306 97.6411429zM510.209616 46.4530683L498.417869 46.4530683C497.829474 46.4530683 497.435886 46.8476025 497.435886 47.4359255L497.435886 70.1320745 497.336495 70.1320745C495.076344 66.8903354 491.146424 64.6294658 484.857957 64.6294658 476.89972 64.6294658 471.199647 68.4615155 468.743696 76.0272298 467.564919 79.7589068 467.072933 83.296795 467.072933 89.4861118 467.072933 95.5790311 467.564919 99.2133168 468.743696 102.945988 471.199647 110.414311 476.89972 114.343752 484.857957 114.343752 491.146424 114.343752 495.076344 112.082882 497.336495 108.842137L497.435886 108.842137 497.435886 112.280646C497.435886 112.869963 497.829474 113.262509 498.417869 113.262509L510.209616 113.262509C510.799004 113.262509 511.192592 112.869963 511.192592 112.280646L511.192592 47.4359255C511.192592 46.8476025 510.799004 46.4530683 510.209616 46.4530683L510.209616 46.4530683zM447.928242 97.6411429C446.846868 100.982261 444.193128 102.751205 440.5584 102.751205 436.923672 102.751205 434.268938 100.982261 433.189552 97.6411429 432.500773 95.4786584 432.304972 93.5149317 432.304972 89.4861118 432.304972 85.4572919 432.500773 83.494559 433.189552 81.3320745 434.268938 77.9919503 436.923672 76.2230062 440.5584 76.2230062 444.193128 76.2230062 446.846868 77.9919503 447.928242 81.3320745 448.616027 83.494559 448.812821 85.4572919 448.812821 89.4861118 448.812821 93.5149317 448.616027 95.4786584 447.928242 97.6411429L447.928242 97.6411429zM440.5584 64.6294658C430.535813 64.6294658 422.675974 69.3459876 419.923837 77.9919503 418.842463 81.4304596 418.352466 84.7705839 418.352466 89.4861118 418.352466 94.2026335 418.842463 97.5427578 419.923837 100.982261 422.675974 109.629217 430.535813 114.343752 440.5584 114.343752 450.579993 114.343752 458.44182 109.629217 461.193957 100.982261 462.275331 97.5427578 462.765328 94.2026335 462.765328 89.4861118 462.765328 84.7705839 462.275331 81.4304596 461.193957 77.9919503 458.44182 69.3459876 450.579993 64.6294658 440.5584 64.6294658L440.5584 64.6294658zM410.702342 46.4530683L398.911589 46.4530683C398.3222 46.4530683 397.929606 46.8476025 397.929606 47.4359255L397.929606 57.1631304C397.929606 57.7524472 398.3222 58.1449938 398.911589 58.1449938L410.702342 58.1449938C411.29173 58.1449938 411.684324 57.7524472 411.684324 57.1631304L411.684324 47.4359255C411.684324 46.8476025 411.29173 46.4530683 410.702342 46.4530683L410.702342 46.4530683zM410.702342 65.7107081L398.911589 65.7107081C398.3222 65.7107081 397.929606 66.1042484 397.929606 66.6935652L397.929606 112.280646C397.929606 112.869963 398.3222 113.262509 398.911589 113.262509L410.702342 113.262509C411.29173 113.262509 411.684324 112.869963 411.684324 112.280646L411.684324 66.6935652C411.684324 66.1042484 411.29173 65.7107081 410.702342 65.7107081L410.702342 65.7107081zM373.871024 76.2230062C377.310946 76.2230062 379.374303 77.5000248 381.437659 80.3492174 381.831248 80.8401491 382.321245 80.9385342 382.911628 80.5459876L391.460247 74.9459876C391.951238 74.5524472 391.951238 74.0615155 391.656047 73.5705839 388.218113 68.3631304 381.831248 64.6294658 373.674229 64.6294658 363.651642 64.6294658 355.987603 69.2485963 353.138064 78.0893416 352.156081 80.9385342 351.664095 84.4754286 351.664095 89.4861118 351.664095 94.4977888 352.156081 98.0336894 353.138064 100.882882 355.987603 109.726609 363.651642 114.343752 373.674229 114.343752 381.831248 114.343752 388.218113 110.609093 391.656047 105.402634 391.951238 104.911702 391.951238 104.42077 391.460247 104.02723L382.911628 98.4282236C382.321245 98.0336894 381.831248 98.1330683 381.437659 98.624 379.374303 101.473193 377.310946 102.751205 373.871024 102.751205 370.235301 102.751205 367.582556 101.079652 366.501182 97.6411429 365.81439 95.6764224 365.616602 93.4165466 365.616602 89.4861118 365.616602 85.5576646 365.81439 83.296795 366.501182 81.3320745 367.582556 77.8935652 370.235301 76.2230062 373.871024 76.2230062L373.871024 76.2230062zM332.225206 97.4443727C332.225206 101.865739 329.27727 104.02723 323.380402 104.02723 318.8601 104.02723 316.502546 102.357665 316.502546 99.0175404 316.502546 95.2838758 319.155292 93.6133168 324.952768 93.6133168L331.63383 93.6133168C332.028412 93.6133168 332.225206 93.8090932 332.225206 94.2026335L332.225206 97.4443727zM324.167579 64.6294658C316.306746 64.6294658 310.50927 66.496795 306.478965 69.3459876 305.988968 69.6391553 305.889577 70.1320745 306.185762 70.7213913L310.605679 78.482882C310.901864 78.9738137 311.392856 79.0721988 311.884841 78.6796522 314.143998 77.0090932 317.682317 75.6336894 322.496817 75.6336894 330.062458 75.6336894 332.225206 77.696795 332.225206 82.1181615L332.225206 83.8861118C332.225206 84.2786584 332.028412 84.4754286 331.63383 84.4754286L323.183608 84.4754286C311.392856 84.4754286 303.433625 89.2903354 303.433625 99.8016398 303.433625 109.922385 310.802473 114.343752 319.254683 114.343752 325.738951 114.343752 329.866658 112.280646 332.32261 109.136298L332.422 109.136298 332.422 112.280646C332.422 112.869963 332.813601 113.262509 333.403983 113.262509L344.31115 113.262509C344.899545 113.262509 345.293133 112.869963 345.293133 112.280646L345.293133 81.824C345.293133 69.9353043 339.691457 64.6294658 324.167579 64.6294658L324.167579 64.6294658zM280.652217 64.6294658C274.561538 64.6294658 270.533221 67.085118 268.370473 70.0326957L268.274064 70.0326957 268.274064 66.6935652C268.274064 66.1042484 267.878488 65.7107081 267.289099 65.7107081L255.497352 65.7107081C254.907964 65.7107081 254.51537 66.1042484 254.51537 66.6935652L254.51537 112.280646C254.51537 112.869963 254.907964 113.262509 255.497352 113.262509L267.289099 113.262509C267.878488 113.262509 268.274064 112.869963 268.274064 112.280646L268.274064 84.967354C268.274064 79.7589068 271.023219 76.3203975 275.739321 76.3203975 280.652217 76.3203975 283.110156 79.7589068 283.110156 84.967354L283.110156 112.280646C283.110156 112.869963 283.502751 113.262509 284.093133 113.262509L295.883886 113.262509C296.473275 113.262509 296.865869 112.869963 296.865869 112.280646L296.865869 82.3129441C296.865869 71.9000248 291.16679 64.6294658 280.652217 64.6294658L280.652217 64.6294658zM230.850376 94.6925714C229.769002 98.0336894 227.608242 99.8016398 223.774731 99.8016398 220.040612 99.8016398 217.878858 98.0336894 216.701075 94.6925714 216.210083 92.9246211 215.913898 90.9608944 215.913898 88.0133168 215.913898 85.0657391 216.210083 83.1000248 216.701075 81.3320745 217.878858 77.9919503 220.040612 76.2230062 223.774731 76.2230062 227.608242 76.2230062 229.769002 77.9919503 230.850376 81.3320745 231.439764 83.1000248 231.734955 85.0657391 231.734955 88.0133168 231.734955 90.9608944 231.439764 92.9246211 230.850376 94.6925714L230.850376 94.6925714zM244.508685 65.7107081L232.717932 65.7107081C232.12755 65.7107081 231.734955 66.1042484 231.734955 66.6935652L231.734955 70.1320745 231.636558 70.1320745C229.572208 66.7919503 225.445494 64.6294658 219.452217 64.6294658 211.59039 64.6294658 205.990702 68.5599006 203.533757 76.1256149 202.453377 79.5641242 201.961391 82.9032547 201.961391 88.0133168 201.961391 93.1223851 202.453377 96.3641242 203.533757 99.9010186 205.990702 107.465739 211.59039 111.396174 219.452217 111.396174 225.445494 111.396174 229.572208 109.235677 231.636558 105.894559L231.734955 105.894559 231.734955 109.922385C231.734955 116.897789 228.787019 120.434683 222.204354 120.434683 218.46924 120.434683 215.32451 118.961888 212.377567 116.307478 211.885581 115.81754 211.393596 115.81754 210.903599 116.307478L203.927345 123.383255C203.43536 123.874186 203.43536 124.365118 203.828948 124.85605 207.266882 128.983255 214.735121 132.028224 221.810765 132.028224 237.434035 132.028224 245.491662 124.070957 245.491662 108.154435L245.491662 66.6935652C245.491662 66.1042484 245.09708 65.7107081 244.508685 65.7107081L244.508685 65.7107081zM194.784654 46.7080745L181.906159 46.7080745C181.296806 46.7080745 180.891596 47.1012765 180.891596 47.6876129L180.891596 112.313377C180.891596 112.900704 181.296806 113.291925 181.906159 113.291925L194.784654 113.291925C195.395034 113.291925 195.800244 112.900704 195.800244 112.313377L195.800244 47.6876129C195.800244 47.1012765 195.395034 46.7080745 194.784654 46.7080745L194.784654 46.7080745z"/>
  </g>
</svg>

<svg xmlns="http://www.w3.org/2000/svg" width="816" height="160" viewBox="0 0 816 160"><path d="M24.002 0L0 12.23v101.468h28.194V44.284l5.17-2.63L70.26 68.458 87.387 46.05 24.002 0zm70.87 46.05v69.413l-5.166 2.637-36.893-26.81L35.68 113.7l63.393 46.05 24-12.22V46.048h-28.2zm705.8 51.59c-1.08 3.342-3.733 5.11-7.37 5.11-3.635 0-6.287-1.768-7.37-5.11-.686-2.16-.883-4.125-.883-8.154 0-4.03.196-5.99.883-8.154 1.082-3.34 3.734-5.11 7.37-5.11s6.29 1.77 7.37 5.11c.687 2.163.883 4.125.883 8.154 0 4.03-.196 5.993-.883 8.155zm13.266-19.648c-2.75-8.646-10.61-13.363-20.635-13.363-10.023 0-17.883 4.716-20.634 13.362-1.082 3.438-1.574 6.78-1.574 11.494 0 4.717.492 8.057 1.573 11.496 2.75 8.647 10.61 13.362 20.633 13.362 10.024 0 17.884-4.715 20.635-13.362 1.08-3.44 1.573-6.78 1.573-11.496 0-4.715-.49-8.056-1.572-11.494zm-44.397-12.28h-12.185c-.688 0-1.08.294-1.277.982l-8.844 28.196h-.196l-9.236-28.196c-.197-.688-.59-.983-1.278-.983h-12.38c-.69 0-.983.394-.786.984l16.9 45.587c.197.59.59.983 1.18.983h10.807c.59 0 .984-.393 1.18-.982l16.902-45.586c.196-.59-.1-.983-.786-.983zm-61.693 18.763h-15.72c-.396 0-.59-.196-.59-.59 0-1.472.194-2.553.49-3.536 1.08-3.243 4.03-5.208 7.96-5.208 3.93 0 6.877 1.965 7.958 5.207.294.982.49 2.063.49 3.536 0 .393-.196.59-.588.59zm-7.96-19.846c-10.12 0-17.685 4.913-20.437 13.46-.982 2.947-1.572 6.385-1.572 11.396 0 4.913.687 8.352 1.67 11.3 2.75 8.548 10.22 13.558 21.028 13.558 8.745 0 15.72-3.145 20.24-7.96.396-.392.396-.98-.096-1.373l-6.487-6.09c-.392-.492-.882-.394-1.375 0-2.75 2.553-6.19 4.224-10.906 4.224-4.913 0-8.55-2.162-9.826-6.288-.295-.786-.492-1.67-.59-2.653 0-.394.195-.59.59-.59h28.79c.688 0 1.08-.392 1.08-.983 0-8.056-.587-11.495-1.57-14.638-2.753-8.353-10.024-13.363-20.538-13.363zm-29.658 1.08h-11.79c-.592 0-.985.394-.985.984v27.312c0 5.207-2.554 8.647-7.27 8.647-4.816 0-7.272-3.538-7.272-8.647V66.694c0-.59-.393-.983-.982-.983h-11.79c-.59 0-.983.394-.983.984v29.964c0 10.317 5.502 17.686 16.017 17.686 5.993 0 9.727-2.26 12.184-5.502h.097v3.44c0 .588.393.98.984.98h11.79c.59 0 .983-.392.983-.98V66.693c0-.59-.394-.983-.984-.983zm-50.786-19.257H608.34c-.59 0-.983.395-.983.983v42.05h-.49l-23.584-42.05c-.393-.687-.982-.983-1.67-.983h-11.79c-.59 0-.985.395-.985.983v64.845c0 .59.394.983.984.983h11.103c.59 0 .983-.393.983-.982V70.33h.492l23.68 41.95c.394.69.884.983 1.67.983h11.694c.59 0 .982-.393.982-.982V47.437c0-.588-.392-.983-.982-.983zm-71.616 38.022h-15.722c-.393 0-.59-.196-.59-.59 0-1.472.197-2.553.492-3.536 1.08-3.243 4.028-5.208 7.96-5.208 3.93 0 6.878 1.965 7.958 5.207.295.982.49 2.063.49 3.536 0 .393-.195.59-.588.59zm-7.96-19.846c-10.12 0-17.687 4.913-20.437 13.46-.983 2.947-1.572 6.385-1.572 11.396 0 4.913.69 8.352 1.67 11.3 2.753 8.548 10.22 13.558 21.03 13.558 8.744 0 15.72-3.145 20.24-7.96.393-.392.393-.98-.1-1.373l-6.483-6.09c-.393-.492-.885-.394-1.375 0-2.752 2.553-6.19 4.224-10.91 4.224-4.912 0-8.546-2.162-9.824-6.288-.296-.786-.492-1.67-.59-2.653 0-.394.197-.59.59-.59h28.79c.688 0 1.08-.392 1.08-.983 0-8.056-.588-11.495-1.57-14.638-2.752-8.353-10.024-13.363-20.538-13.363zM496.55 97.64c-1.08 3.342-3.634 5.11-7.27 5.11-3.733 0-6.29-1.768-7.37-5.11-.59-1.865-.885-3.93-.885-8.154 0-4.223.296-6.29.885-8.154 1.08-3.438 3.637-5.11 7.37-5.11 3.636 0 6.19 1.672 7.27 5.11.59 1.865.886 3.93.886 8.154 0 4.225-.295 6.29-.885 8.155zm13.66-51.187h-11.792c-.59 0-.982.395-.982.983v22.696h-.1c-2.26-3.242-6.19-5.503-12.478-5.503-7.958 0-13.658 3.832-16.114 11.397-1.18 3.732-1.67 7.27-1.67 13.46 0 6.092.49 9.726 1.67 13.46 2.456 7.467 8.156 11.397 16.114 11.397 6.288 0 10.218-2.26 12.478-5.502h.1v3.44c0 .588.393.98.982.98h11.792c.59 0 .983-.392.983-.98V47.435c0-.588-.394-.983-.983-.983zM447.928 97.64c-1.08 3.342-3.735 5.11-7.37 5.11-3.634 0-6.29-1.768-7.368-5.11-.69-2.16-.885-4.125-.885-8.154 0-4.03.196-5.99.885-8.154 1.08-3.34 3.734-5.11 7.368-5.11 3.635 0 6.29 1.77 7.37 5.11.688 2.163.885 4.125.885 8.154 0 4.03-.197 5.993-.885 8.155zm-7.37-33.01c-10.022 0-17.882 4.716-20.634 13.362-1.082 3.438-1.572 6.78-1.572 11.494 0 4.717.49 8.057 1.572 11.496 2.752 8.647 10.612 13.362 20.634 13.362s17.884-4.715 20.636-13.362c1.08-3.44 1.57-6.78 1.57-11.496 0-4.715-.49-8.056-1.57-11.494-2.752-8.646-10.614-13.363-20.636-13.363zm-29.856-18.177h-11.79c-.59 0-.982.395-.982.983v9.727c0 .59.392.982.982.982h11.79c.59 0 .982-.393.982-.982v-9.727c0-.588-.392-.983-.982-.983zm0 19.258h-11.79c-.59 0-.982.394-.982.984v45.587c0 .59.392.983.982.983h11.79c.59 0 .982-.393.982-.982V66.695c0-.59-.392-.983-.982-.983zm-36.83 10.513c3.44 0 5.502 1.277 7.566 4.126.393.49.883.59 1.474.196l8.548-5.6c.49-.394.49-.884.196-1.375-3.438-5.207-9.825-8.94-17.982-8.94-10.022 0-17.686 4.62-20.536 13.46-.982 2.85-1.474 6.385-1.474 11.396 0 5.012.492 8.548 1.474 11.397 2.85 8.844 10.514 13.46 20.536 13.46 8.157 0 14.544-3.734 17.982-8.94.295-.49.295-.982-.196-1.376l-8.548-5.6c-.59-.393-1.08-.294-1.474.197-2.064 2.85-4.127 4.127-7.567 4.127-3.635 0-6.287-1.67-7.37-5.11-.686-1.964-.883-4.223-.883-8.154 0-3.928.197-6.19.884-8.154 1.083-3.438 3.735-5.11 7.37-5.11zm-41.647 21.22c0 4.423-2.948 6.584-8.845 6.584-4.52 0-6.877-1.67-6.877-5.01 0-3.733 2.652-5.404 8.45-5.404h6.68c.395 0 .592.196.592.59v3.24zm-8.057-32.814c-7.86 0-13.66 1.867-17.69 4.716-.49.293-.588.786-.292 1.375l4.42 7.763c.296.49.787.59 1.28.197 2.258-1.67 5.796-3.046 10.61-3.046 7.566 0 9.73 2.063 9.73 6.484v1.768c0 .393-.198.59-.592.59h-8.45c-11.79 0-19.75 4.814-19.75 15.326 0 10.12 7.368 14.542 15.82 14.542 6.485 0 10.613-2.063 13.07-5.208h.098v3.145c0 .59.392.983.982.983h10.907c.59 0 .983-.393.983-.982V81.825c0-11.89-5.602-17.195-21.125-17.195zm-43.516 0c-6.09 0-10.12 2.455-12.282 5.403h-.096v-3.34c0-.59-.396-.982-.985-.982h-11.793c-.59 0-.982.394-.982.984v45.587c0 .59.393.983.982.983h11.792c.588 0 .984-.393.984-.982V84.968c0-5.208 2.75-8.647 7.465-8.647 4.912 0 7.37 3.44 7.37 8.647v27.314c0 .59.393.983.983.983h11.79c.59 0 .983-.393.983-.982V82.314c0-10.413-5.7-17.684-16.214-17.684zM230.85 94.692c-1.08 3.34-3.242 5.11-7.075 5.11-3.734 0-5.896-1.77-7.074-5.11-.49-1.768-.786-3.732-.786-6.68 0-2.947.296-4.913.787-6.68 1.18-3.34 3.34-5.11 7.075-5.11 3.833 0 5.994 1.77 7.075 5.11.59 1.767.885 3.733.885 6.68 0 2.948-.295 4.912-.885 6.68zm13.66-28.982h-11.792c-.59 0-.983.394-.983.984v3.438h-.098c-2.065-3.34-6.192-5.503-12.185-5.503-7.862 0-13.46 3.93-15.918 11.496-1.08 3.438-1.573 6.777-1.573 11.887s.493 8.35 1.574 11.888c2.457 7.566 8.056 11.496 15.918 11.496 5.993 0 10.12-2.16 12.185-5.5h.098v4.026c0 6.976-2.948 10.513-9.53 10.513-3.736 0-6.88-1.473-9.827-4.128-.492-.49-.984-.49-1.474 0l-6.977 7.076c-.492.49-.492.982-.098 1.473 3.437 4.127 10.905 7.172 17.98 7.172 15.624 0 23.682-7.957 23.682-23.874v-41.46c0-.59-.395-.983-.983-.983zM194.784 46.71h-12.88c-.608 0-1.013.393-1.013.98v64.625c0 .588.405.98 1.014.98h12.88c.61 0 1.014-.392 1.014-.98V47.688c0-.587-.405-.98-1.015-.98z" fill="#0047BB" fill-rule="evenodd"/></svg>
